X:76
T:RVW2/2/76 Silvery, Silvery
C:Mrs. Humphreys, Ingrave, Essex, 25 April 1904
L:1/8
Q:1/4=100
M:3/4
I:linebreak $
K:C
"^(Editorial suggestion)  " (Bc) | dd c2 dd | DE F3 (E/D/) | BB (A !fermata!G2) D | AA (d2 c2) |$ 
w: O _|Sil- v'ry, Sil- ve- ry|on one day She *|dressed her self _ She|dressed her- self *|
(BG) AG G2 | z2 z2 Bc | dd c2 dd | DE F3 E/D/ |$ BB A !fermata!G2 D | AA d2 c2 | BG AG G2 |] 
w: in _ man's ar- ray|||||||



